Papirus/64x64/apps/dota2.svg

<?xml version="1.0" encoding="UTF-8" standalone="no"?>
<svg xmlns="http://www.w3.org/2000/svg" height="64" width="64" version="1">
 <path style="opacity:0.2;enable-background:new" d="M 4.5193859,6.7866123 4.4879867,6.9624077 4.323991,8.4309695 5.0935709,9.845133 5.3043654,8.2279747 4.5193859,6.7866123 Z M 59.539953,7.142003 59.375957,8.2279747 59.563952,8.9895549 59.701948,8.1067779 59.865944,7.2865993 59.539953,7.142003 Z M 4.1913944,16.47776 3.9999994,17.25114 4.4881867,20.357059 4.6523824,22.804995 5.3905632,25.274931 5.628957,24.070962 4.6523824,20.805047 4.4881867,18.356511 4.1913944,16.47776 Z m 55.6745496,0.570185 -0.163996,1.960949 -0.325991,2.938123 -0.811979,0.491988 -0.519986,0.295992 0.575985,0.975974 -0.117997,0.293993 -0.749981,0.291992 -0.054,0.171996 -0.171996,0.573985 0.115997,0.867977 0.245994,0.331991 0.613984,-0.237993 0.117997,-0.293993 -0.575985,-0.975974 0.519986,-0.295993 0.811979,-0.491987 0.325991,-2.937923 0.163996,-1.961149 0,-1.999948 z M 5.4253623,27.082884 5.3041654,27.704867 5.4643613,29.500821 6.6049316,30.808787 6.6401306,31.04278 6.9291231,30.930783 6.6049316,28.808839 5.4643613,27.500873 5.4253623,27.082884 Z m 53.7645997,5.109866 -0.052,1.111971 -0.463988,0.687983 -0.573985,0.523986 0,0.635983 1.037973,-0.171995 0.016,-0.004 0.094,-2.155944 -0.058,-0.627984 z m -54.2765864,1.515961 -0.097597,0.038 0.3241915,6.53583 1.0469727,0.783979 0.2577933,-1.803953 -1.304766,-0.979974 -0.2265941,-4.573881 z m 0.1483962,22.463415 -0.4841874,0.066 -0.089998,2.011948 0.5741851,-0.078 1.3829639,0.285992 c 0,0 1.6739564,0.577985 2.0193474,0.693982 0.345591,0.115997 0.8593776,-0.519986 0.8593776,-0.519986 l 1.3827646,0 1.15237,-0.229994 0.636583,0.289992 0.574385,-0.06 1.441363,-0.111997 0.683582,-0.293993 0.292792,0.695982 0.230594,-0.171995 0.636584,-0.291993 1.320365,-0.113997 0.285193,0.40599 c 0,0 1.611558,0.171995 2.186943,0.171995 0.575985,0 0.465988,-0.463988 0.465988,-0.463988 0,0 0.167995,-0.056 0.455988,0.233994 0.287992,0.287993 0.695982,-0.117997 0.695982,-0.117997 l 0.573985,-0.287992 0.405989,0.405989 0.40199,0.287993 1.093971,-0.229994 1.781954,0 0.409989,-0.117997 1.667957,2.36794 0.107997,-1.207969 2.707929,0 c 0.229994,0 0.121997,0.805979 0.121997,0.805979 l 1.779954,-0.577984 0.921976,0.921976 1.90195,-1.211969 1.035973,-0.175995 2.015948,-0.107998 2.877925,0 3.281914,0.225995 0.865978,-0.343991 0.629983,-0.577985 1.729955,0.975974 1.265967,-0.517986 c 0,0 1.381964,0.527986 1.611958,0.583984 0.231994,0.058 2.363939,-0.237993 2.363939,-0.237993 l 1.319965,-0.345991 -0.857977,-0.633984 0.573985,-0.229994 2.417937,0.113997 3.221916,0.811979 -0.004,-1.999948 -3.217916,-0.811979 -2.417937,-0.113997 -0.573985,0.229994 0.857977,0.633984 -1.319965,0.345991 c 0,0 -2.131945,0.295992 -2.363939,0.237994 -0.229994,-0.056 -1.611958,-0.583985 -1.611958,-0.583985 l -1.265967,0.517986 -1.729955,-0.975974 -0.629983,0.577985 -0.865978,0.343991 -3.281914,-0.225994 -2.877925,0 -2.015948,0.107997 -1.035973,0.175995 -1.90195,1.211969 -0.921976,-0.921976 -1.779954,0.577985 c 0,0 0.107997,-0.805979 -0.121997,-0.805979 l -2.707929,0 -0.107997,1.207968 -1.667957,-2.367938 -0.409989,0.117997 -1.781954,0 -1.093971,0.229994 -0.40199,-0.287993 -0.405989,-0.405989 -0.573985,0.287992 c 0,0 -0.40799,0.40599 -0.695982,0.117997 -0.287993,-0.289992 -0.455988,-0.233994 -0.455988,-0.233994 0,0 0.109997,0.463988 -0.465988,0.463988 -0.575385,0 -2.186943,-0.171995 -2.186943,-0.171995 l -0.285593,-0.40599 -1.320365,0.113997 -0.636584,0.291993 -0.230594,0.171995 -0.292792,-0.695982 -0.683582,0.293993 -1.441363,0.111997 -0.574385,0.06 -0.636583,-0.289992 -1.15237,0.229994 -1.3827643,0 c 0,0 -0.5137866,0.635983 -0.8593776,0.519986 C 8.1182921,57.036103 6.4443357,56.458118 6.4443357,56.458118 L 5.0613718,56.172126 Z"/>
 <path style="fill:#c2352a;enable-background:new" d="m 36.412955,4.0015109 -9.61295,0.1640577 -1.949169,1.4687218 0.160156,0.1640577 -6.349635,0.1641957 0.488188,-0.652383 L 4.6539224,4.9819694 4.4897267,5.9625438 4.3257309,7.4311056 5.3061054,9.2280587 4.8179181,12.985761 l -0.8163787,3.265515 0.4881873,3.105319 0.1641957,2.448536 0.9765745,3.265915 -0.3243915,1.633957 0.1601958,1.795954 1.1405703,1.307966 0.3241916,2.121944 -2.113145,0.815979 0.3241916,6.53583 1.304766,0.979974 -0.8163788,5.713851 -0.652383,0.327992 -0.4883872,10.945715 0.574185,-0.078 1.382964,0.285992 c 0,0 1.6739764,0.579785 2.0195474,0.695302 0.345511,0.115537 0.8593576,-0.519526 0.8593576,-0.519526 l 1.3827843,0 1.15231,-0.230454 0.636703,0.289052 0.574205,-0.0586 1.441363,-0.113277 0.683582,-0.292953 0.292952,0.695302 0.230194,-0.173995 0.636584,-0.291993 1.320365,-0.113997 0.285193,0.40599 c 0,0 1.611598,0.171875 2.187543,0.171875 0.575845,0 0.464828,-0.464828 0.464828,-0.464828 0,0 0.169095,-0.05448 0.457028,0.234374 0.287912,0.288753 0.695302,-0.117177 0.695302,-0.117177 l 0.574205,-0.289052 0.406229,0.406229 0.40233,0.289053 1.093731,-0.230454 1.781194,0 0.410149,-0.117177 1.667957,2.367938 0.109377,-1.207008 2.706929,0 c 0.230354,0 0.121097,0.804659 0.121097,0.804659 l 1.781194,-0.578105 0.921856,0.921856 1.90229,-1.210909 1.035133,-0.175775 2.015548,-0.109377 2.878925,0 3.281114,0.226554 0.867158,-0.343751 0.628883,-0.578105 1.730435,0.976534 1.265587,-0.519506 c 0,0 1.382884,0.528186 1.613238,0.585925 0.230334,0.0577 2.363138,-0.238274 2.363138,-0.238274 l 1.320286,-0.347651 -0.859358,-0.632804 0.574206,-0.230454 2.417937,0.113277 3.222516,0.812479 -0.05468,-21.077451 0,-1.332005 -0.804659,0.121097 -1.039033,0.171875 0,-0.636703 0.574205,-0.523426 0.464828,-0.687483 0.109377,-2.484335 -0.171875,-1.792913 -0.749981,-2.195343 -0.683582,-0.921856 -0.117177,-0.867157 0.171876,-0.574205 0.05468,-0.171876 0.749981,-0.292952 0.117177,-0.292953 -0.574206,-0.976534 0.519507,-0.296872 0.812479,-0.492168 0.324211,-2.937523 0.164056,-1.960889 0,-6.859221 L 59.377197,9.2251588 59.703188,7.1040141 59.867184,6.2838354 58.401222,5.6314524 52.863366,4.651078 52.045388,5.7954482 51.721396,4.4868823 41.135672,4.3228865 40.807681,6.1236396 38.203748,6.4478312 37.877757,5.3072609 35.597816,4.9790694 36.413795,3.998695 Z"/>
 <path style="opacity:0.2;enable-background:new" d="m 43.998757,13.000989 -7.999791,3.999896 11.999687,7.999792 0,-7.999792 -3.999896,-3.999896 z M 15.999487,15.000937 9.9996431,17.000885 43.998757,51 49.998601,51 53.998497,41.00026 15.999487,15.000937 Z M 11.999591,37.000364 9.9996431,47.000104 13.999539,51 17.999435,51 23.999278,49.000052 11.999591,37.000364 Z"/>
 <path style="fill:#ffffff;enable-background:new" d="m 43.998757,12.001303 -7.999791,3.999895 11.999687,7.999792 0,-7.999792 -3.999896,-3.999895 z m -27.99927,1.999947 -5.9998439,1.999948 33.9991139,33.999115 5.999844,0 3.999896,-9.99974 -37.99901,-25.999323 z m -3.999896,21.999427 -1.9999479,9.99974 3.9998959,3.999896 3.999896,0 5.999843,-1.999948 -11.999687,-11.999688 z"/>
 <path style="fill:#ffffff;enable-background:new;fill-opacity:1;opacity:0.2" d="M 36.410156 4.0019531 L 26.800781 4.1660156 L 24.851562 5.6347656 L 25.011719 5.7988281 L 18.662109 5.9628906 L 19.150391 5.3105469 L 4.6542969 4.9824219 L 4.4902344 5.9628906 L 4.3261719 7.4316406 L 4.4179688 7.6015625 L 4.4902344 6.9628906 L 4.6542969 5.9824219 L 19.150391 6.3105469 L 18.662109 6.9628906 L 25.011719 6.7988281 L 24.851562 6.6347656 L 26.800781 5.1660156 L 35.830078 5.0117188 L 35.597656 4.9785156 L 36.410156 4.0019531 z M 41.134766 4.3222656 L 40.808594 6.1230469 L 38.203125 6.4472656 L 37.876953 5.3066406 L 36.339844 5.0859375 L 35.597656 5.9785156 L 37.876953 6.3066406 L 38.203125 7.4472656 L 40.808594 7.1230469 L 41.134766 5.3222656 L 51.720703 5.4863281 L 52.044922 6.7949219 L 52.863281 5.6503906 L 58.400391 6.6308594 L 59.6875 7.203125 L 59.703125 7.1035156 L 59.867188 6.2832031 L 58.400391 5.6308594 L 52.863281 4.6503906 L 52.044922 5.7949219 L 51.720703 4.4863281 L 41.134766 4.3222656 z M 59.472656 9.6054688 L 59.376953 10.224609 L 59.867188 12.189453 L 59.867188 11.189453 L 59.472656 9.6054688 z M 5.2011719 10.037109 L 4.8183594 12.986328 L 4.0019531 16.251953 L 4.0976562 16.865234 L 4.8183594 13.986328 L 5.3066406 10.228516 L 5.2011719 10.037109 z M 58.486328 24.482422 L 58.046875 24.734375 L 58.261719 25.099609 L 58.503906 25.003906 L 58.621094 24.710938 L 58.486328 24.482422 z M 5.5117188 25.671875 L 5.3066406 26.705078 L 5.3691406 27.394531 L 5.6308594 26.070312 L 5.5117188 25.671875 z M 57.621094 26.732422 L 57.527344 27.042969 L 57.644531 27.910156 L 58.328125 28.832031 L 59.078125 31.027344 L 59.220703 32.505859 L 59.25 31.820312 L 59.078125 30.027344 L 58.328125 27.832031 L 57.644531 26.910156 L 57.621094 26.732422 z M 6.7871094 31.986328 L 4.8183594 32.746094 L 4.8671875 33.726562 L 6.9316406 32.931641 L 6.7871094 31.986328 z M 59.945312 35.859375 L 59.140625 35.980469 L 58.587891 36.072266 L 58.101562 36.515625 L 58.101562 37.152344 L 59.140625 36.980469 L 59.945312 36.859375 L 59.945312 35.859375 z M 59.945312 37.191406 L 59.945312 38.191406 L 59.998047 58.269531 L 60 58.269531 L 59.945312 37.191406 z M 6.3183594 41.166016 L 5.6308594 45.976562 L 4.9785156 46.304688 L 4.4902344 57.25 L 4.5351562 57.244141 L 4.9785156 47.304688 L 5.6308594 46.976562 L 6.4472656 41.263672 L 6.3183594 41.166016 z"/>
</svg>

<?xml version="1.0" encoding="UTF-8" standalone="no"?>
<svg xmlns="http://www.w3.org/2000/svg" height="64" width="64" version="1">
 <path style="enable-background:new;fill:#c2352a" d="m36.413 4.0015-9.613.16406-1.9492 1.4687.16016.16406-6.3496.16420.48819-.65238l-14.495-.3282-.1643.9805-.1640 1.4686.9804 1.797-.4882 3.7579-.81638 3.2655.48819 3.1053.16420 2.4485.97657 3.2659-.32439 1.634.16020 1.796 1.1406 1.308.32419 2.1219-2.1131.81598.32419 6.5358 1.3048.97997-.81638 5.7139-.65238.32799-.48839 10.946.57418-.078 1.383.28599s1.674.57978 2.0195.69530c.34551.11554.85936-.51953.85936-.51953h1.3828l1.1523-.23045.63670.28905.57420-.0586 1.4414-.11328.68358-.29295.29295.69530.23019-0.174.63658-.29199 1.3204-0.114.28519.40599s1.6116.17188 2.1875.17188c.57584 0 .46483-.46483.46483-.46483s.16910-.05448.45703.23437c.28791.28875.69530-.11718.69530-.11718l.57420-.28905.40623.40623.40233.28905 1.0937-.23045h1.7812l.41015-.11718 1.668 2.3679.10938-1.207h2.7069c.23035 0 .12110.80466.12110.80466l1.7812-.57810.92186.92186 1.9023-1.2109 1.0351-.17578 2.0155-.10938h2.8789l3.2811.22655.86716-.34375.62888-.57810 1.7304.97653 1.2656-.51951s1.3829.52819 1.6132.58592c.23033.0577 2.3631-.23827 2.3631-.23827l1.3203-.34765-.85936-.63280.57421-.23045 2.4179.11328 3.2225.81248-.05468-21.077v-1.332l-.80466.12110-1.039.17188v-.63670l.57420-.52343.46483-.68748.10938-2.4843-.17188-1.7929-.74998-2.1953-.68358-.92186-.11718-.86716.17188-.57420.05468-.17188.74998-.29295.11718-.29295-.57421-.97653.51951-.29687.81248-.49217.32421-2.9375.16406-1.9609v-6.8592l-.490-1.9668.326-2.1212.164-.8202-1.466-.6523-5.538-.9804-.818 1.1443-.324-1.3085-10.585-.1640-.328 1.8007-2.604.3242-.326-1.1405-2.28-.3282.816-.9804z"/>
 <path style="opacity:.2;enable-background:new" d="m43.999 13.001-7.9998 3.9999 12 7.9998v-7.9998l-3.9999-3.9999zm-28 2-5.9994 2 33.999 33.999h6l3.999-10-37.999-25.999zm-3.999 21.999-2.0004 10 4.0004 4h3.999l6-2-11.999-12z"/>
 <path style="enable-background:new;fill:#ffffff" d="m43.999 12.001-7.9998 3.9999 12 7.9998v-7.9998l-3.9999-3.9999zm-27.999 1.9999-5.9998 1.9999 33.999 33.999h5.9998l3.9999-9.9997-37.999-25.999zm-3.9999 21.999-1.9999 9.9997 3.9999 3.9999h3.9999l5.9998-1.9999-12-12z"/>
 <path style="opacity:.2;enable-background:new;fill:#ffffff" d="m36.41 4.002l-9.609.1640-1.949 1.4688.160.1640-6.35.1641.488-.6524-14.496-.3281-.1638.9805-.1640 1.4687.0918 0.17.0722-.6387.1641-.9805 14.496.3281-.488.6524 6.35-.1641-.160-.1640 1.949-1.4688 9.029-.1543-.232-.0332.812-.9765zm4.725.3203l-.326 1.8007-2.606.3243-.326-1.1407-1.537-.2207-.742.8926 2.279.3281.326 1.1407 2.606-.3243.326-1.8007 10.586.1640.324 1.3086.818-1.1445 5.537.9805 1.288.5722.015-.0996.164-.8203-1.467-.6523-5.537-.9805-.818 1.1445-.324-1.3086-10.586-.1640zm18.338 5.2832l-.096.6195.490 1.964v-1l-.394-1.5835zm-54.272.4315l-.3828 2.949-.8164 3.266.0957.613.7207-2.879.4882-3.757-.1054-.192zm53.285 14.445l-.439.252.215.366.242-.096.117-.293-.135-.229zm-52.974 1.19l-.2051 1.033.0625.690.2618-1.325-.1192-.398zm52.109 1.06l-.094.311.118.867.683.922.750 2.195.143 1.479.029-.686-.172-1.793-.750-2.195-.683-.922-.024-.178zm-50.834 5.254l-1.9687.760.0488.981 2.0644-.795-.1445-.946zm53.158 3.873l-.804.121-.553.092-.486.444v.636l1.039-.172.804-.121v-1zm0 1.332v1l.053 20.079h.002l-.055-21.079zm-53.627 3.975l-.6875 4.811-.6524.328-.4883 10.945.0450-.006.4433-9.939.6524-.328.8164-5.713-.1289-.098z"/>
 <path style="opacity:.2;enable-background:new" d="m36.41 5.002-.58008.00977.50977.074219zm23.278 2.2011-.311 2.0215l.0957.38086.23047-1.502.16406-.82031zm-55.27.39844-.091797.83008.875 1.6055.10547-.80859zm-.3203 9.2635-.0957.387.4883 3.105.1640 2.448.8575 2.867.1191-.602-.9766-3.265-.1640-2.448zm55.77 1.1836-.16406 1.959-.32422 2.9395-.8125.49023-.51953.29688.43945.74805.08008-.04492.8125-.49219.32422-2.9375.16406-1.9609zm-1.6055 7.0508-.50781.19727-.05469.17188-.17188.57422.09375.68945.07813-.26367.05469-.17188.75-.29297.11719-.29297zm-52.895 2.295-.0605.310.1601 1.795l1.1406 1.3086.17969 1.1777.14453-.05469-.32422-2.123-1.1406-1.3066zm53.854 5.1113-.08008 1.7988-.46484.6875-.57422.52344v.63672l.48633-.08008.08789-.08008.46484-.6875.10938-2.4844zm-54.354 1.221-.0488.019.3242 6.537 1.1758.883.1289-.902-1.3047-.981zm.1973 23.445-.5293.072-.0449 1.006.5742-.078 1.3828.287s1.674.57980 2.0195.69531c.34551.11554.85938-.51953.85938-.51953h1.3828l1.1523-.23047.63672.28906.57422-.05859 1.4414-.11328.68359-.29297.29297.69531.231-.174.636-.293 1.321-.113.285.406s1.6116.17188 2.1875.17188c.57584 0 .46484-.46484.46484-.46484s.16910-.05448.45703.23438c.28791.28875.69531-.11719.69531-.11719l.57422-.28906.40625.40625.40234.28906 1.0938-.23047h1.7793l.410-.117 1.668 2.367.109-1.207h2.707c.23035 0 .12109.80469.12109.80469l1.7812-.57812.92188.92188 1.9023-1.2109 1.0352-.17578 2.0156-.10938h2.8789l3.2812.22656.86719-.34375.62891-.57812 1.7305.97656 1.2656-.51953s1.3829.52820 1.6133.58594c.23033.0577 2.3633-.23828 2.3633-.23828l1.3203-.34766-.85938-.63281.57422-.23047 2.418.11328 3.2227.8125-.002-1-3.2207-.8125-2.418-.11328-.57422.23047.85938.63281-1.3203.34766s-2.1329.29598-2.3633.23828c-.23036-.05774-1.6133-.58594-1.6133-.58594l-1.265.519-1.73-.977-.62891.57812-.86719.34375-3.2812-.22656h-2.8789l-2.0156.10938-1.0352.17578-1.9023 1.2109-.92188-.92188-1.7812.57812s.10926-.80469-.12109-.80469h-2.708l-.109 1.208-1.668-2.367-.411.117h-1.7793l-1.0938.23047-.40234-.28906-.40625-.40625-.57422.28906s-.4074.40594-.69531.11719c-.28793-.28885-.45703-.23438-.45703-.23438s0.111.46484-.46484.46484c-.57594 0-2.1875-.17188-2.1875-.17188l-.284-.406-1.321.113-.636.293-.23047.17383-.29297-.69531-.68359.29297-1.4414.11328-.57422.05859-.63672-.28906-1.1523.23047h-1.3828s-.51386.63507-.85938.51953c-.3455-.116-2.0195-.696-2.0195-.696z"/>
</svg>
